!!!COM: Robert Schumann
!!!CNT: Deutsch
!!!TXO: Deutsch
!!!OTL: Scho2ne Wiege meiner Leiden
!!!LYR: Heine
!!!OPR: Liederkreis
!!!OPS: Op.24
!!!ONM: No. 5
!!!ENC: Ben Fuhrman
!!!YOR: Schumann Lieder - Max Friedlaender, ed.,
!!!YOR: New York: C. F. Peters, Vol. 1
!!!ODT: 1840/
!!NB: Vocal melody and text only encoded.
!!NB: First instance of melodic material only encoded.
**kern	**silbe
*clefG2	*
*k[f#c#]	*
*M3/4	*
!!created: 6/05/06 19:36
!!proofed and posted: 6/05/06 19:36
!!edit time: 60 minutes
=3	=3
{2f#	{Scho2-
4f#	-ne
=4	=4
(2a	Wie
8f#)	|
8d	-ge
=5	=5
2d	mei-
4e	-ner
=6	=6
(8e	Lei-
8f#)	|
2f#	-den
=7	=7
2f#	scho2-
4f#	-nes
=8	=8
(qf#	Grab-
2b)	|
4a	-mal
=9	=9
[2g	mei-
(12g]	|
12a)	|
12b	-ner
=10	=10
2.cc#}	Ruh',}
=11	=11
4r	.
{4cc#	{scho2-
4cc#	-ne
=12	=12
2dd	Stadt,
4cc#	wir
=13	=13
[2b	mu2s-
8b]	|
8a	-sen
=14	=14
(8a	schei-
8g#)	|
2g#}	-den,}
=15	=15
4r	.
{4dd	{le-
4g#	-be
=16	=16
4.a	wohl!
8f#	ruf'
8gn	ich
8e	dir
=17	=17
2.a}	zu.}
=18	=18
4r	.
{4.dd	{Le-
8b	-be
=19	=19
4a	wohl,
4.g	le-
8e	-be
=20	=20
2d}	wohl!}
4r	.
!! rest to measure 22
=22	=22
{[2f#	{Le-
8f#]	|
8f#	-be
=23	=23
2a	wohl,
(8f#	du
8e)	|
=24	=24
2d	heil'-
4e	-ge
=25	=25
(8e	Schw-
8f#)	|
2f#}	-elle,}
=26	=26
4r	.
{4f#	{wo
4f#	da
=27	=27
2b	wan-
4a	-delt
=28	=28
[2g	Lieb-
(12g]	|
12a)	|
12b	-chen
=29	=29
2.cc#}	traut,}
=30	=30
4r	.
{4cc#	{le-
4cc#	-be
=31	=31
2dd	wohl,
4cc#	du
=32	=32
[2b	heil'-
8b]	|
8a	-ge
=33	=33
(8a	Stel-
8g#)	|
2g#}	-le,}
=34	=34
4r	.
{4.dd	{wo
8g#	ich
=35	=35
4.a	sie
8f#	zu-
8gn	-erst
8e	ge-
=36	=36
2.a}	-schaut!}
=37	=37
4r	.
{4.dd	{Le-
8b	-be
=38	=38
4a	wohl,
4.g	le-
8e	-be
=39	=39
4d}	wohl!}
4r	.
{8fn	{Ha2tt'
8fn	ich
=40	=40
*k[b-]	*
8f	dich
8f	doch
4.a	nie
8g	ge-
=41	=41
2.e	-sehn,
=42	=42
8f	scho2-
8f	-ne
4.a	Her-
8g	-zens-
=43	=43
8.e	-ko2-
16f	-ni-
4g}	-gin!}
4r	.
=44	=44
{2cc	{nim-
4f	-mer,
=45	=45
2dd	nim-
4b	-mer
=46	=46
4.b	wa2r'
8f#	es
8f#	dann
8f#	ge-
=47	=47
4a	-sche-
4g	-hen,
8.b	dass
16b	ich
=48	=48
4.b	jetzt
8a	so
8g	e-
8dd	-lend
=49	=49
(4dd	bin.
4cc#)}	|}
4r	.
!! rest to measure 53
=53	=53
*k[f#c#]	*
{2f#	{Nie
4f#	wollt'
=54	=54
2a	ich
(8f#	dein
8d)	|
=55	=55
[2d	Her-
8d]	|
8e	-ze
=56	=56
(8e	ru2h-
8f#)	|
2f#}	-ren,}
=57	=57
4r	.
{4f#	{Lie-
4f#	-be
=58	=58
2b	hab'
4a	ich
=59	=59
[2g	nie-
(12g]	|
12a)	|
12b	er-
=60	=60
2.cc#}	-fleht;
=61	=61
4r	.
{4cc#	{nur
4cc#	ein
=62	=62
2dd	stil-
4cc#	-les
=63	=63
2b	Le-
4a	-ben
=64	=64
(8a	fu2h-
8g#)	|
4g#}	-ren}
4r	.
=65	=65
4r	.
{4dd	{wollt'
4g#	ich,
=66	=66
8a	wo
8d	dein
4.f#	O-
8e	-dem
=67	=67
2.a}	weht,}
=68	=68
4r	.
{4dd	{wo
4b	dein
=69	=69
([4a	O-
8a]	|
8f#	|
8g)	|
8e	-dem
=70	=70
4d#	weht
4.ccn	Doch
8d#	du
=71	=71
8e}	dra2ngst}
8r	.
8r	.
{8e	{mich
8.f#	selbst
16f#	von
=72	=72
8a	hin-
8g	-nen,
4.dd	bitt'-
8e#	-re
=73	=73
4.f#	Wor-
8f#	-te
8g#	spricht
8g#	dein
=74	=74
4a}	Mund;}
4r	.
4r	.
=75	=75
{2dd	{Wahn-
4b	-sinn
=76	=76
4.g#	wu2hlt
8g#	in
8a	mei-
8b	-nen
=77	=77
4.cc#	Sin-
8cc#	-nen,
8cc#	und
8a	main
=78	=78
2f#	Herz
4f#	ist
=79	=79
(4.b	krank
8a	|
8g#)	|
8f#	und
=80	=80
4e#}	wund.}
4r	.
4r	.
=81	=81
4r	.
4r	.
{8g#	{Und
8g#	die
=82	=82
2a	Glie-
4a	-der,
=83	=83
2b-	matt
4b-	und
=84	=84
2ccn	tra2-
4cc#	-ge,
=85	=85
4dd	schlepp'
4dd}	ich,}
4r	.
=86	=86
{2dd	{schlepp'
4dd	ich
=87	=87
2dd	fort
4dd	am
=88	=88
(4dd	Wan-
4.ee-)	|
8dd	-der-
=89	=89
([4dd	-stab',
8dd]	|
8b-)	|
8g	bis
8a	mein
=90	=90
4.b-	mu2-
8g	-des
8.e	Haupt
16d	ich
=91	=91
(8d	le-
8c)	|
4c}	-ge}
4r	.
=92	=92
{8d	{fer-
8d	-ne
8c	in
8d	ein
8e	ku2h-
8fn	-les
=93	=93
[2fn	Grab.
(8fn]	|
8f#)	|
=94	=94
2f#	Scho2-
4f#	-ne
=95	=95
(2a	Wie
8f#)	|
8d	-ge
=96	=96
2d	mei-
4e	-ner
=97	=97
(8e	Lei-
8f#)	|
2f#	-den,
=98	=98
2f#	sch2-
4f#	-nes
=99	=99
2b	Grab-
4a	-mal
=100	=100
[2g	mei-
(12g]	|
12a)	|
12b	-ner
=101	=101
2.cc#}	Ruh',
=102	=102
4r	.
{4cc#	{scho2-
4cc#	-ne
=103	=103
2dd	Stadt,
4cc#	wir
=104	=104
2b	mu2s-
4a	-sen
=105	=105
(8a	schei-
8g#)	|
2g#}	-den.}
=106	=106
4r	.
{4.dd	{Le-
8g#	-be
=107	=107
4a	wohl,
4.gn	le-
8e	-be
=108	=108
2.d}	wohl!}
==	==
*-	*-
